X: 18274
T: Humours Of Ross, The
R: jig
M: 6/8
K: Eminor
D|EDE G2E|GBE BAF|DED F2D|FAD FED|
EDE G2E|GBE G2A|BdB cBA|BGE E2:|
f|~g3 ege|bge efg|f2d dfa|afd def|
~g3 ege|bge e2f|gbg faf|gfg e2f|
~g3 ege|bge efg|f2d dfa|afd def|
gfe agf|bag fed|BdB cBA|BGE E2||

